src/actions/16/view-financial-account-savings.svg

<svg viewBox="0 0 16 16" xmlns="http://www.w3.org/2000/svg">
  <defs id="defs3051">
    <style type="text/css" id="current-color-scheme">
      .ColorScheme-Text {
        color:#363636;
      }
      </style>
  </defs>
    <path
        style="fill:currentColor;fill-opacity:1;stroke:none" 
        d="m8 2a3 3 0 0 0-2.8261719 2h-3.1738281v10h12v-10h-3.175781a3 3 0 0 0-2.824219-2zm0 0.9609375a2 2 0 0 1 2 2 2 2 0 0 1-2 2 2 2 0 0 1-2-2 2 2 0 0 1 2-2zm-5 2.0390625h2a3 3 0 0 0 0.7675781 2h-1.7675781v1h8v-1h-1.769531a3 3 0 0 0 0.769531-2h2v7h-10z"
        class="ColorScheme-Text"
    />
</svg>

<svg xmlns="http://www.w3.org/2000/svg" viewBox="0 0 16 16">
    <path d="M8 2a3 3 0 0 0-2.826 2H2v10h12V4h-3.176A3 3 0 0 0 8 2zm0 .96a2 2 0 0 1 2 2 2 2 0 0 1-2 2 2 2 0 0 1-2-2 2 2 0 0 1 2-2zM3 5h2a3 3 0 0 0 .768 2H4v1h8V7h-1.77A3 3 0 0 0 11 5h2v7H3z" style="fill:currentColor;fill-opacity:1;stroke:none;color:#050505;opacity:.7"/>
</svg>
